X:16823
T:The Hawk
R:Reel
S:(Unknown Group)
H:
N:
D:De Danann?
Z:Adrian Scahill
M:4/4
L:1/8
K:D
D2FD A,DFE|DFEG FAGF|E2GE B,EGF|EDCB, A,B,CA,|\
D2FD A,DFE|DFEG FAGF|E^DEF GA,B,C|DFEC DA,B,C:||\
DAFD A,GEC|A,FDC DCB,A,|B,A,CB, DCED|FDGF E2EF|\
(3GAG FG EFDF|(3CDC B,C A,^G,A,D|(3B,CD EF GA,B,C|DFEC D4:||


